web/themes/custom/subsites/bellcom_theme/assets/images/scanner.svg

<svg width="50" height="50" viewBox="0 0 80 80" fill="none" xmlns="http://www.w3.org/2000/svg">
<path d="M6.66666 30V23.3333C6.66666 13.3333 13.3333 6.66663 23.3333 6.66663H56.6667C66.6667 6.66663 73.3333 13.3333 73.3333 23.3333V30M6.66666 50V56.6666C6.66666 66.6666 13.3333 73.3333 23.3333 73.3333H56.6667C66.6667 73.3333 73.3333 66.6666 73.3333 56.6666V50M6.66666 40H73.3333" stroke="black" stroke-width="1.5" stroke-miterlimit="10" stroke-linecap="round" stroke-linejoin="round"/>
</svg>

<svg width="50" height="50" viewBox="0 0 80 80" fill="none" xmlns="http://www.w3.org/2000/svg"><path d="M6.667 30v-6.667c0-10 6.666-16.666 16.666-16.666h33.334c10 0 16.666 6.666 16.666 16.666V30M6.667 50v6.667c0 10 6.666 16.666 16.666 16.666h33.334c10 0 16.666-6.666 16.666-16.666V50M6.667 40h66.666" stroke="#000" stroke-width="1.5" stroke-miterlimit="10" stroke-linecap="round" stroke-linejoin="round"/></svg>
